public/icon/Z_ALL/Gying.svg

<?xml version="1.0" encoding="UTF-8"?>
<svg width="1024px" height="1024px" viewBox="0 0 1024 1024" version="1.1" xmlns="http://www.w3.org/2000/svg" xmlns:xlink="http://www.w3.org/1999/xlink">
    <title>Gying</title>
    <g id="ICON-新版方图标" stroke="none" stroke-width="1" fill="none" fill-rule="evenodd">
        <g id="Gying">
            <rect id="矩形" fill="#4E8EF5" fill-rule="nonzero" x="0" y="0" width="1024" height="1024"></rect>
            <path d="M268,308 C286,287 331,236 437,209 C516,194 541,191 621,202 C678,212 717,236 731,250 C746,264 748,288 735,304 C726,314 713,320 688,316 C667,312 643,299 617,294 C582,285 546.70964,283.077628 522.728541,285.699914 C463,291 403,319 370,373 C325,441 332,539 341,587 C352,628 373,690 449,718 C500,737 595.401913,738.61804 644,712 C692,689 722,628 688,579 C674.457565,558.937134 633,540 572,539 C506,532 502,516 499,511 C495.605253,505.432262 494,493 498,484 C500.068927,477.517362 504.735594,471.517362 512,466 C524,459.333333 541.333333,454.666667 564,452 C580,450 580,449 630,449 C679,452 679,452 727,465 C772,483 785,496 806,523 C817,539 842,591 822,670 C815,694 800,774 667,813 C551,842 440,833 365,801 C329.618106,785.640055 259,750 222,639 C211.246979,610.136627 196.662521,527.130595 207,451 C214.928281,392.612001 240,339 268,308 Z" id="矩形" fill="#FFFFFF"></path>
        </g>
    </g>
</svg>

<svg xmlns="http://www.w3.org/2000/svg" width="1024" height="1024"><g fill="none" fill-rule="evenodd"><path fill="#4E8EF5" fill-rule="nonzero" d="M0 0h1024v1024H0z"/><path fill="#FFF" d="M268 308c18-21 63-72 169-99 79-15 104-18 184-7 57 10 96 34 110 48 15 14 17 38 4 54-9 10-22 16-47 12-21-4-45-17-71-22-35-9-70.29-10.922-94.271-8.3C463 291 403 319 370 373c-45 68-38 166-29 214 11 41 32 103 108 131 51 19 146.402 20.618 195-6 48-23 78-84 44-133-13.542-20.063-55-39-116-40-66-7-70-23-73-28-3.395-5.568-5-18-1-27 2.069-6.483 6.736-12.483 14-18 12-6.667 29.333-11.333 52-14 16-2 16-3 66-3 49 3 49 3 97 16 45 18 58 31 79 58 11 16 36 68 16 147-7 24-22 104-155 143-116 29-227 20-302-12-35.382-15.36-106-51-143-162-10.753-28.863-25.337-111.87-15-188 7.928-58.388 33-112 61-143"/></g></svg>
